assets/1. 1-F/Boxing glove/Color/Boxing.Glove-color.svg

<svg width="100%" height="100%" viewBox="0 0 32 32" fill="none" xmlns="http://www.w3.org/2000/svg">
<path d="M9.72559 22.4401H22.6943V29.2344C22.6943 29.7867 22.2466 30.2344 21.6943 30.2344H10.7256C10.1733 30.2344 9.72559 29.7867 9.72559 29.2344V22.4401Z" fill="url(#paint0_linear_18_3139)"/>
<path d="M9.72559 22.4401H22.6943V29.2344C22.6943 29.7867 22.2466 30.2344 21.6943 30.2344H10.7256C10.1733 30.2344 9.72559 29.7867 9.72559 29.2344V22.4401Z" fill="url(#paint1_linear_18_3139)"/>
<path d="M9.72559 22.4401H22.6943V29.2344C22.6943 29.7867 22.2466 30.2344 21.6943 30.2344H10.7256C10.1733 30.2344 9.72559 29.7867 9.72559 29.2344V22.4401Z" fill="url(#paint2_radial_18_3139)"/>
<path d="M9.72559 22.4401H22.6943V29.2344C22.6943 29.7867 22.2466 30.2344 21.6943 30.2344H10.7256C10.1733 30.2344 9.72559 29.7867 9.72559 29.2344V22.4401Z" fill="url(#paint3_linear_18_3139)"/>
<path d="M9.72559 22.4401H22.6943V29.2344C22.6943 29.7867 22.2466 30.2344 21.6943 30.2344H10.7256C10.1733 30.2344 9.72559 29.7867 9.72559 29.2344V22.4401Z" fill="url(#paint4_linear_18_3139)"/>
<g filter="url(#filter0_f_18_3139)">
<rect x="13.228" y="25.5781" width="5.73196" height="2.86969" rx="0.5" fill="#A28CB5"/>
</g>
<g filter="url(#filter1_ii_18_3139)">
<rect x="13.3662" y="25.2188" width="5.96391" height="3.09375" rx="0.5" fill="#D8CAE2"/>
</g>
<rect x="13.3662" y="25.2188" width="5.96391" height="3.09375" rx="0.5" fill="url(#paint5_linear_18_3139)"/>
<rect x="13.3662" y="25.2188" width="5.96391" height="3.09375" rx="0.5" fill="url(#paint6_linear_18_3139)"/>
<g filter="url(#filter2_i_18_3139)">
<path d="M19.3301 8.02087H23.5529C25.2097 8.02087 26.5529 9.36402 26.5529 11.0209V15.4717C26.5529 17.0791 25.9079 18.6193 24.7626 19.7471L22.9677 21.5144C22.8661 21.6562 22.7311 21.959 22.7311 22.4401H21.3287V21.8002H19.3301V8.02087Z" fill="#FF378F"/>
<path d="M19.3301 8.02087H23.5529C25.2097 8.02087 26.5529 9.36402 26.5529 11.0209V15.4717C26.5529 17.0791 25.9079 18.6193 24.7626 19.7471L22.9677 21.5144C22.8661 21.6562 22.7311 21.959 22.7311 22.4401H21.3287V21.8002H19.3301V8.02087Z" fill="url(#paint7_radial_18_3139)"/>
<path d="M19.3301 8.02087H23.5529C25.2097 8.02087 26.5529 9.36402 26.5529 11.0209V15.4717C26.5529 17.0791 25.9079 18.6193 24.7626 19.7471L22.9677 21.5144C22.8661 21.6562 22.7311 21.959 22.7311 22.4401H21.3287V21.8002H19.3301V8.02087Z" fill="url(#paint8_radial_18_3139)"/>
</g>
<g filter="url(#filter3_i_18_3139)">
<path d="M13.868 2.23566C10.002 2.23566 6.86804 5.36967 6.86804 9.23566V14.4846C6.86804 14.6406 6.87314 14.7953 6.88318 14.9487V16.186C6.88318 17.7257 7.47511 19.2065 8.53651 20.322L9.17209 20.9899C9.52588 21.3617 9.72319 21.8553 9.72319 22.3686V23.2461C9.72319 23.5223 9.94705 23.7461 10.2232 23.7461H22.2312C22.5073 23.7461 22.7312 23.5223 22.7312 23.2461V18.12C23.3763 17.0604 23.748 15.8159 23.748 14.4846V9.23566C23.748 5.36966 20.614 2.23566 16.748 2.23566H13.868Z" fill="#EE3863"/>
<path d="M13.868 2.23566C10.002 2.23566 6.86804 5.36967 6.86804 9.23566V14.4846C6.86804 14.6406 6.87314 14.7953 6.88318 14.9487V16.186C6.88318 17.7257 7.47511 19.2065 8.53651 20.322L9.17209 20.9899C9.52588 21.3617 9.72319 21.8553 9.72319 22.3686V23.2461C9.72319 23.5223 9.94705 23.7461 10.2232 23.7461H22.2312C22.5073 23.7461 22.7312 23.5223 22.7312 23.2461V18.12C23.3763 17.0604 23.748 15.8159 23.748 14.4846V9.23566C23.748 5.36966 20.614 2.23566 16.748 2.23566H13.868Z" fill="url(#paint9_radial_18_3139)"/>
</g>
<path d="M13.868 2.23566C10.002 2.23566 6.86804 5.36967 6.86804 9.23566V14.4846C6.86804 14.6406 6.87314 14.7953 6.88318 14.9487V16.186C6.88318 17.7257 7.47511 19.2065 8.53651 20.322L9.17209 20.9899C9.52588 21.3617 9.72319 21.8553 9.72319 22.3686V23.2461C9.72319 23.5223 9.94705 23.7461 10.2232 23.7461H22.2312C22.5073 23.7461 22.7312 23.5223 22.7312 23.2461V18.12C23.3763 17.0604 23.748 15.8159 23.748 14.4846V9.23566C23.748 5.36966 20.614 2.23566 16.748 2.23566H13.868Z" fill="url(#paint10_linear_18_3139)"/>
<path d="M13.868 2.23566C10.002 2.23566 6.86804 5.36967 6.86804 9.23566V14.4846C6.86804 14.6406 6.87314 14.7953 6.88318 14.9487V16.186C6.88318 17.7257 7.47511 19.2065 8.53651 20.322L9.17209 20.9899C9.52588 21.3617 9.72319 21.8553 9.72319 22.3686V23.2461C9.72319 23.5223 9.94705 23.7461 10.2232 23.7461H22.2312C22.5073 23.7461 22.7312 23.5223 22.7312 23.2461V18.12C23.3763 17.0604 23.748 15.8159 23.748 14.4846V9.23566C23.748 5.36966 20.614 2.23566 16.748 2.23566H13.868Z" fill="url(#paint11_radial_18_3139)"/>
<path d="M13.868 2.23566C10.002 2.23566 6.86804 5.36967 6.86804 9.23566V14.4846C6.86804 14.6406 6.87314 14.7953 6.88318 14.9487V16.186C6.88318 17.7257 7.47511 19.2065 8.53651 20.322L9.17209 20.9899C9.52588 21.3617 9.72319 21.8553 9.72319 22.3686V23.2461C9.72319 23.5223 9.94705 23.7461 10.2232 23.7461H22.2312C22.5073 23.7461 22.7312 23.5223 22.7312 23.2461V18.12C23.3763 17.0604 23.748 15.8159 23.748 14.4846V9.23566C23.748 5.36966 20.614 2.23566 16.748 2.23566H13.868Z" fill="url(#paint12_radial_18_3139)"/>
<defs>
<filter id="filter0_f_18_3139" x="12.728" y="25.0781" width="6.73193" height="3.86969" filterUnits="userSpaceOnUse" color-interpolation-filters="sRGB">
<feFlood flood-opacity="0" result="BackgroundImageFix"/>
<feBlend mode="normal" in="SourceGraphic" in2="BackgroundImageFix" result="shape"/>
<feGaussianBlur stdDeviation="0.25" result="effect1_foregroundBlur_18_3139"/>
</filter>
<filter id="filter1_ii_18_3139" x="13.0662" y="25.2188" width="6.56393" height="3.09375" filterUnits="userSpaceOnUse" color-interpolation-filters="sRGB">
<feFlood flood-opacity="0" result="BackgroundImageFix"/>
<feBlend mode="normal" in="SourceGraphic" in2="BackgroundImageFix" result="shape"/>
<feColorMatrix in="SourceAlpha" type="matrix" values="0 0 0 0 0 0 0 0 0 0 0 0 0 0 0 0 0 0 127 0" result="hardAlpha"/>
<feOffset dx="-0.3"/>
<feGaussianBlur stdDeviation="0.3"/>
<feComposite in2="hardAlpha" operator="arithmetic" k2="-1" k3="1"/>
<feColorMatrix type="matrix" values="0 0 0 0 0.996078 0 0 0 0 0.964706 0 0 0 0 1 0 0 0 1 0"/>
<feBlend mode="normal" in2="shape" result="effect1_innerShadow_18_3139"/>
<feColorMatrix in="SourceAlpha" type="matrix" values="0 0 0 0 0 0 0 0 0 0 0 0 0 0 0 0 0 0 127 0" result="hardAlpha"/>
<feOffset dx="0.3"/>
<feGaussianBlur stdDeviation="0.3"/>
<feComposite in2="hardAlpha" operator="arithmetic" k2="-1" k3="1"/>
<feColorMatrix type="matrix" values="0 0 0 0 0.694118 0 0 0 0 0.635294 0 0 0 0 0.737255 0 0 0 1 0"/>
<feBlend mode="normal" in2="effect1_innerShadow_18_3139" result="effect2_innerShadow_18_3139"/>
</filter>
<filter id="filter2_i_18_3139" x="19.1301" y="8.02087" width="7.42278" height="14.4192" filterUnits="userSpaceOnUse" color-interpolation-filters="sRGB">
<feFlood flood-opacity="0" result="BackgroundImageFix"/>
<feBlend mode="normal" in="SourceGraphic" in2="BackgroundImageFix" result="shape"/>
<feColorMatrix in="SourceAlpha" type="matrix" values="0 0 0 0 0 0 0 0 0 0 0 0 0 0 0 0 0 0 127 0" result="hardAlpha"/>
<feOffset dx="-0.2"/>
<feGaussianBlur stdDeviation="0.2"/>
<feComposite in2="hardAlpha" operator="arithmetic" k2="-1" k3="1"/>
<feColorMatrix type="matrix" values="0 0 0 0 0.890196 0 0 0 0 0.423529 0 0 0 0 0.615686 0 0 0 1 0"/>
<feBlend mode="normal" in2="shape" result="effect1_innerShadow_18_3139"/>
</filter>
<filter id="filter3_i_18_3139" x="6.86804" y="1.23566" width="20.8799" height="22.5105" filterUnits="userSpaceOnUse" color-interpolation-filters="sRGB">
<feFlood flood-opacity="0" result="BackgroundImageFix"/>
<feBlend mode="normal" in="SourceGraphic" in2="BackgroundImageFix" result="shape"/>
<feColorMatrix in="SourceAlpha" type="matrix" values="0 0 0 0 0 0 0 0 0 0 0 0 0 0 0 0 0 0 127 0" result="hardAlpha"/>
<feOffset dx="4" dy="-1"/>
<feGaussianBlur stdDeviation="2.5"/>
<feComposite in2="hardAlpha" operator="arithmetic" k2="-1" k3="1"/>
<feColorMatrix type="matrix" values="0 0 0 0 0.643137 0 0 0 0 0.219608 0 0 0 0 0.25098 0 0 0 1 0"/>
<feBlend mode="normal" in2="shape" result="effect1_innerShadow_18_3139"/>
</filter>
<linearGradient id="paint0_linear_18_3139" x1="19.1162" y1="26" x2="9.72559" y2="26" gradientUnits="userSpaceOnUse">
<stop stop-color="#BEAEC6"/>
<stop offset="1" stop-color="#A794AD"/>
</linearGradient>
<linearGradient id="paint1_linear_18_3139" x1="16.21" y1="30.5312" x2="16.21" y2="29.1562" gradientUnits="userSpaceOnUse">
<stop offset="0.0681817" stop-color="#946CB6"/>
<stop offset="1" stop-color="#946CB6" stop-opacity="0"/>
</linearGradient>
<radialGradient id="paint2_radial_18_3139" cx="0" cy="0" r="1" gradientUnits="userSpaceOnUse" gradientTransform="translate(21.8975 23.1875) rotate(165.735) scale(1.9024 10.9668)">
<stop stop-color="#D3CAD7"/>
<stop offset="1" stop-color="#D3CAD7" stop-opacity="0"/>
</radialGradient>
<linearGradient id="paint3_linear_18_3139" x1="16.21" y1="22.75" x2="16.21" y2="24.9687" gradientUnits="userSpaceOnUse">
<stop stop-color="#CEC1D0"/>
<stop offset="1" stop-color="#CEC1D0" stop-opacity="0"/>
</linearGradient>
<linearGradient id="paint4_linear_18_3139" x1="9.33363" y1="27.7642" x2="11.7255" y2="27.7642" gradientUnits="userSpaceOnUse">
<stop stop-color="#7D7484"/>
<stop offset="1" stop-color="#7D7484" stop-opacity="0"/>
</linearGradient>
<linearGradient id="paint5_linear_18_3139" x1="16.3482" y1="28.5312" x2="16.3482" y2="27.9063" gradientUnits="userSpaceOnUse">
<stop stop-color="#B18CD0"/>
<stop offset="1" stop-color="#B18CD0" stop-opacity="0"/>
</linearGradient>
<linearGradient id="paint6_linear_18_3139" x1="16.3482" y1="24.9375" x2="16.3482" y2="25.7187" gradientUnits="userSpaceOnUse">
<stop stop-color="#EDD5DD"/>
<stop offset="1" stop-color="#EDD5DD" stop-opacity="0"/>
</linearGradient>
<radialGradient id="paint7_radial_18_3139" cx="0" cy="0" r="1" gradientUnits="userSpaceOnUse" gradientTransform="translate(22.9415 10.9063) scale(4.29969 3.5625)">
<stop stop-color="#FF6DA9"/>
<stop offset="1" stop-color="#FF6DA9" stop-opacity="0"/>
</radialGradient>
<radialGradient id="paint8_radial_18_3139" cx="0" cy="0" r="1" gradientUnits="userSpaceOnUse" gradientTransform="translate(23.9131 7.87502) rotate(44.2361) scale(2.48614 2.99345)">
<stop stop-color="#FF5F93"/>
<stop offset="1" stop-color="#FF5F93" stop-opacity="0"/>
</radialGradient>
<radialGradient id="paint9_radial_18_3139" cx="0" cy="0" r="1" gradientUnits="userSpaceOnUse" gradientTransform="translate(22.2412 5.40627) rotate(62.5643) scale(8.54578 7.81186)">
<stop stop-color="#FF6AA0"/>
<stop offset="1" stop-color="#FF6AA0" stop-opacity="0"/>
</radialGradient>
<linearGradient id="paint10_linear_18_3139" x1="15.9287" y1="24.1563" x2="15.9287" y2="22.2188" gradientUnits="userSpaceOnUse">
<stop stop-color="#C72985"/>
<stop offset="1" stop-color="#C72985" stop-opacity="0"/>
</linearGradient>
<radialGradient id="paint11_radial_18_3139" cx="0" cy="0" r="1" gradientUnits="userSpaceOnUse" gradientTransform="translate(25.3662 22.2188) rotate(-125.375) scale(7.66511 3.79306)">
<stop offset="0.389336" stop-color="#FF3989"/>
<stop offset="1" stop-color="#FF3989" stop-opacity="0"/>
</radialGradient>
<radialGradient id="paint12_radial_18_3139" cx="0" cy="0" r="1" gradientUnits="userSpaceOnUse" gradientTransform="translate(13.0537 12.9909) scale(11.3125 34.5682)">
<stop offset="0.870166" stop-color="#FF7AA3" stop-opacity="0"/>
<stop offset="0.975138" stop-color="#FF7AA3"/>
</radialGradient>
</defs>
</svg>

<svg width="100%" height="100%" viewBox="0 0 32 32" xmlns="http://www.w3.org/2000/svg"><path fill="url(#a)" d="M9.726 22.44h12.968v6.794a1 1 0 0 1-1 1H10.726a1 1 0 0 1-1-1z"/><path fill="url(#b)" d="M9.726 22.44h12.968v6.794a1 1 0 0 1-1 1H10.726a1 1 0 0 1-1-1z"/><path fill="url(#c)" d="M9.726 22.44h12.968v6.794a1 1 0 0 1-1 1H10.726a1 1 0 0 1-1-1z"/><path fill="url(#d)" d="M9.726 22.44h12.968v6.794a1 1 0 0 1-1 1H10.726a1 1 0 0 1-1-1z"/><path fill="url(#e)" d="M9.726 22.44h12.968v6.794a1 1 0 0 1-1 1H10.726a1 1 0 0 1-1-1z"/><g filter="url(#f)"><rect width="5.732" height="2.87" x="13.228" y="25.578" fill="#A28CB5" rx=".5"/></g><g filter="url(#g)"><rect width="5.964" height="3.094" x="13.366" y="25.219" fill="#D8CAE2" rx=".5"/></g><rect width="5.964" height="3.094" x="13.366" y="25.219" fill="url(#h)" rx=".5"/><rect width="5.964" height="3.094" x="13.366" y="25.219" fill="url(#i)" rx=".5"/><g filter="url(#j)"><path fill="#FF378F" d="M19.33 8.02h4.223a3 3 0 0 1 3 3v4.452a6 6 0 0 1-1.79 4.275l-1.795 1.767c-.102.142-.237.445-.237.926H21.33v-.64H19.33z"/><path fill="url(#k)" d="M19.33 8.02h4.223a3 3 0 0 1 3 3v4.452a6 6 0 0 1-1.79 4.275l-1.795 1.767c-.102.142-.237.445-.237.926H21.33v-.64H19.33z"/><path fill="url(#l)" d="M19.33 8.02h4.223a3 3 0 0 1 3 3v4.452a6 6 0 0 1-1.79 4.275l-1.795 1.767c-.102.142-.237.445-.237.926H21.33v-.64H19.33z"/></g><g filter="url(#m)"><path fill="#EE3863" d="M13.868 2.236a7 7 0 0 0-7 7v5.249q0 .234.015.464v1.237a6 6 0 0 0 1.654 4.136l.635.668a2 2 0 0 1 .551 1.379v.877a.5.5 0 0 0 .5.5h12.008a.5.5 0 0 0 .5-.5V18.12a6.97 6.97 0 0 0 1.017-3.635v-5.25a7 7 0 0 0-7-7z"/><path fill="url(#n)" d="M13.868 2.236a7 7 0 0 0-7 7v5.249q0 .234.015.464v1.237a6 6 0 0 0 1.654 4.136l.635.668a2 2 0 0 1 .551 1.379v.877a.5.5 0 0 0 .5.5h12.008a.5.5 0 0 0 .5-.5V18.12a6.97 6.97 0 0 0 1.017-3.635v-5.25a7 7 0 0 0-7-7z"/></g><path fill="url(#o)" d="M13.868 2.236a7 7 0 0 0-7 7v5.249q0 .234.015.464v1.237a6 6 0 0 0 1.654 4.136l.635.668a2 2 0 0 1 .551 1.379v.877a.5.5 0 0 0 .5.5h12.008a.5.5 0 0 0 .5-.5V18.12a6.97 6.97 0 0 0 1.017-3.635v-5.25a7 7 0 0 0-7-7z"/><path fill="url(#p)" d="M13.868 2.236a7 7 0 0 0-7 7v5.249q0 .234.015.464v1.237a6 6 0 0 0 1.654 4.136l.635.668a2 2 0 0 1 .551 1.379v.877a.5.5 0 0 0 .5.5h12.008a.5.5 0 0 0 .5-.5V18.12a6.97 6.97 0 0 0 1.017-3.635v-5.25a7 7 0 0 0-7-7z"/><path fill="url(#q)" d="M13.868 2.236a7 7 0 0 0-7 7v5.249q0 .234.015.464v1.237a6 6 0 0 0 1.654 4.136l.635.668a2 2 0 0 1 .551 1.379v.877a.5.5 0 0 0 .5.5h12.008a.5.5 0 0 0 .5-.5V18.12a6.97 6.97 0 0 0 1.017-3.635v-5.25a7 7 0 0 0-7-7z"/><defs><linearGradient id="a" x1="19.116" x2="9.726" y1="26" y2="26" gradientUnits="userSpaceOnUse"><stop stop-color="#BEAEC6"/><stop offset="1" stop-color="#A794AD"/></linearGradient><linearGradient id="b" x1="16.21" x2="16.21" y1="30.531" y2="29.156" gradientUnits="userSpaceOnUse"><stop offset=".068" stop-color="#946CB6"/><stop offset="1" stop-color="#946CB6" stop-opacity="0"/></linearGradient><linearGradient id="d" x1="16.21" x2="16.21" y1="22.75" y2="24.969" gradientUnits="userSpaceOnUse"><stop stop-color="#CEC1D0"/><stop offset="1" stop-color="#CEC1D0" stop-opacity="0"/></linearGradient><linearGradient id="e" x1="9.334" x2="11.726" y1="27.764" y2="27.764" gradientUnits="userSpaceOnUse"><stop stop-color="#7D7484"/><stop offset="1" stop-color="#7D7484" stop-opacity="0"/></linearGradient><linearGradient id="h" x1="16.348" x2="16.348" y1="28.531" y2="27.906" gradientUnits="userSpaceOnUse"><stop stop-color="#B18CD0"/><stop offset="1" stop-color="#B18CD0" stop-opacity="0"/></linearGradient><linearGradient id="i" x1="16.348" x2="16.348" y1="24.938" y2="25.719" gradientUnits="userSpaceOnUse"><stop stop-color="#EDD5DD"/><stop offset="1" stop-color="#EDD5DD" stop-opacity="0"/></linearGradient><linearGradient id="o" x1="15.929" x2="15.929" y1="24.156" y2="22.219" gradientUnits="userSpaceOnUse"><stop stop-color="#C72985"/><stop offset="1" stop-color="#C72985" stop-opacity="0"/></linearGradient><radialGradient id="c" cx="0" cy="0" r="1" gradientTransform="matrix(-1.84374 .46876 -2.7023 -10.62865 21.898 23.188)" gradientUnits="userSpaceOnUse"><stop stop-color="#D3CAD7"/><stop offset="1" stop-color="#D3CAD7" stop-opacity="0"/></radialGradient><radialGradient id="k" cx="0" cy="0" r="1" gradientTransform="matrix(4.29969 0 0 3.5625 22.942 10.906)" gradientUnits="userSpaceOnUse"><stop stop-color="#FF6DA9"/><stop offset="1" stop-color="#FF6DA9" stop-opacity="0"/></radialGradient><radialGradient id="l" cx="0" cy="0" r="1" gradientTransform="matrix(1.78125 1.73437 -2.08828 2.14472 23.913 7.875)" gradientUnits="userSpaceOnUse"><stop stop-color="#FF5F93"/><stop offset="1" stop-color="#FF5F93" stop-opacity="0"/></radialGradient><radialGradient id="n" cx="0" cy="0" r="1" gradientTransform="rotate(62.564 6.672 21.006)scale(8.54578 7.81186)" gradientUnits="userSpaceOnUse"><stop stop-color="#FF6AA0"/><stop offset="1" stop-color="#FF6AA0" stop-opacity="0"/></radialGradient><radialGradient id="p" cx="0" cy="0" r="1" gradientTransform="matrix(-4.43753 -6.24998 3.09279 -2.1959 25.366 22.219)" gradientUnits="userSpaceOnUse"><stop offset=".389" stop-color="#FF3989"/><stop offset="1" stop-color="#FF3989" stop-opacity="0"/></radialGradient><radialGradient id="q" cx="0" cy="0" r="1" gradientTransform="matrix(11.3125 0 0 34.5682 13.054 12.99)" gradientUnits="userSpaceOnUse"><stop offset=".87" stop-color="#FF7AA3" stop-opacity="0"/><stop offset=".975" stop-color="#FF7AA3"/></radialGradient><filter id="f" width="6.732" height="3.87" x="12.728" y="25.078" color-interpolation-filters="sRGB" filterUnits="userSpaceOnUse"><feFlood flood-opacity="0" result="BackgroundImageFix"/><feBlend in="SourceGraphic" in2="BackgroundImageFix" result="shape"/><feGaussianBlur result="effect1_foregroundBlur_18_3139" stdDeviation=".25"/></filter><filter id="g" width="6.564" height="3.094" x="13.066" y="25.219" color-interpolation-filters="sRGB" filterUnits="userSpaceOnUse"><feFlood flood-opacity="0" result="BackgroundImageFix"/><feBlend in="SourceGraphic" in2="BackgroundImageFix" result="shape"/><feColorMatrix in="SourceAlpha" result="hardAlpha" values="0 0 0 0 0 0 0 0 0 0 0 0 0 0 0 0 0 0 127 0"/><feOffset dx="-.3"/><feGaussianBlur stdDeviation=".3"/><feComposite in2="hardAlpha" k2="-1" k3="1" operator="arithmetic"/><feColorMatrix values="0 0 0 0 0.996078 0 0 0 0 0.964706 0 0 0 0 1 0 0 0 1 0"/><feBlend in2="shape" result="effect1_innerShadow_18_3139"/><feColorMatrix in="SourceAlpha" result="hardAlpha" values="0 0 0 0 0 0 0 0 0 0 0 0 0 0 0 0 0 0 127 0"/><feOffset dx=".3"/><feGaussianBlur stdDeviation=".3"/><feComposite in2="hardAlpha" k2="-1" k3="1" operator="arithmetic"/><feColorMatrix values="0 0 0 0 0.694118 0 0 0 0 0.635294 0 0 0 0 0.737255 0 0 0 1 0"/><feBlend in2="effect1_innerShadow_18_3139" result="effect2_innerShadow_18_3139"/></filter><filter id="j" width="7.423" height="14.419" x="19.13" y="8.021" color-interpolation-filters="sRGB" filterUnits="userSpaceOnUse"><feFlood flood-opacity="0" result="BackgroundImageFix"/><feBlend in="SourceGraphic" in2="BackgroundImageFix" result="shape"/><feColorMatrix in="SourceAlpha" result="hardAlpha" values="0 0 0 0 0 0 0 0 0 0 0 0 0 0 0 0 0 0 127 0"/><feOffset dx="-.2"/><feGaussianBlur stdDeviation=".2"/><feComposite in2="hardAlpha" k2="-1" k3="1" operator="arithmetic"/><feColorMatrix values="0 0 0 0 0.890196 0 0 0 0 0.423529 0 0 0 0 0.615686 0 0 0 1 0"/><feBlend in2="shape" result="effect1_innerShadow_18_3139"/></filter><filter id="m" width="20.88" height="22.511" x="6.868" y="1.236" color-interpolation-filters="sRGB" filterUnits="userSpaceOnUse"><feFlood flood-opacity="0" result="BackgroundImageFix"/><feBlend in="SourceGraphic" in2="BackgroundImageFix" result="shape"/><feColorMatrix in="SourceAlpha" result="hardAlpha" values="0 0 0 0 0 0 0 0 0 0 0 0 0 0 0 0 0 0 127 0"/><feOffset dx="4" dy="-1"/><feGaussianBlur stdDeviation="2.5"/><feComposite in2="hardAlpha" k2="-1" k3="1" operator="arithmetic"/><feColorMatrix values="0 0 0 0 0.643137 0 0 0 0 0.219608 0 0 0 0 0.25098 0 0 0 1 0"/><feBlend in2="shape" result="effect1_innerShadow_18_3139"/></filter></defs></svg>
